X:1
T:사랑이 식었다고 말해도 돼
T:사랑이 식었다고 말해도 돼 
T:먼데이키즈의 '사랑이 식었다고 말해도 돼' (2019.05) 수록곡
T:한상원,이진성 작사 작곡
C:한상원,이진성 작사 작곡
L:1/8
M:4/4
K:E
V:1 treble nm="남성" snm="M."
V:1
 AA A/A/A/B/ (GF/)(F/ F2) | BB B/B/d/e/ dc/(G/ G2) | cB/(c/ c)B/(c/ c)e/(e/ e/)g(a/4g/4 | %3
w: 너 를 너 무 사 랑 해- * 서- *|그 게 멀 어 지 게 한 걸 까- *|철 이 없- * 는 내- 욕 심- * 인 가- * *|
 f4) z efg || (g>f) fe/(B/ B)efg | g2 f/e(f/ e)efg | a2 a/b(f/ e) z c((b | %7
w: * 사 랑 이|식- * 었 다 고- * 솔 직 히|말 해 도 돼- * 가 슴 뛰|는 설 렘 이- * 네 게-|
 b)(a a/)a/4g/4f/g/ f)e f/g(g/ | g) z f/gg/ gefg | ((g2 g/)bc'/ c'4) | z aab gf/(f/ e2) | %11
w: * * * * * * * * 내 가 좀 더|* 잘 나 서- * 성 공 할|때- * * * 쯤|니 앞 에 서 볼 게- *|
[M:2/4] z a ag |[M:4/4] a/(ab/ b6) |[M:3/4] z2 z2 gf/g/4(f/4 ||[M:4/4] e4) z4 | z8 |] %16
w: 그 때 넌|홀 로- * *|이 기 를 *|||

